X: 1
T: Eddie Moloney's
M: 6/8
L: 1/8
R: jig
K: Dmaj
FDD ADD|ded cAG|FDD AdB|cAG AGE|
F2D ADD|ded cAG|faf ged|cAG AGE:|
Ade f2a|daf ged|Ade fga|ged cAG|
Ade f2a|daf gfe|faf ged|cAG AGE:|
